build/img/i-count-lesson.svg

<svg width="24" height="24" viewBox="0 0 24 24" fill="none" xmlns="http://www.w3.org/2000/svg">
<path fill-rule="evenodd" clip-rule="evenodd" d="M6.11304 4.5H11.9051C14.3271 4.5 16.0181 6.16904 16.0181 8.56091V15.4391C16.0181 17.831 14.3271 19.5 11.9051 19.5H6.11304C3.69102 19.5 2 17.831 2 15.4391V8.56091C2 6.16904 3.69102 4.5 6.11304 4.5ZM19.958 6.87898C20.397 6.65563 20.912 6.67898 21.331 6.94294C21.75 7.20589 22 7.66274 22 8.16223V15.8384C22 16.3389 21.75 16.7947 21.331 17.0577C21.102 17.2008 20.846 17.2739 20.588 17.2739C20.373 17.2739 20.158 17.2231 19.957 17.1206L18.476 16.3734C17.928 16.0952 17.588 15.5369 17.588 14.9165V9.08305C17.588 8.46173 17.928 7.90335 18.476 7.62721L19.958 6.87898Z" fill="#62CA76"/>
</svg>

<svg width="24" height="24" fill="none" xmlns="http://www.w3.org/2000/svg"><path fill-rule="evenodd" clip-rule="evenodd" d="M6.113 4.5h5.792c2.422 0 4.113 1.669 4.113 4.06v6.88c0 2.391-1.69 4.06-4.113 4.06H6.113C3.691 19.5 2 17.831 2 15.44V8.56C2 6.17 3.691 4.5 6.113 4.5zm13.845 2.379c.439-.223.954-.2 1.373.064.419.263.669.72.669 1.22v7.675c0 .5-.25.957-.669 1.22a1.385 1.385 0 01-1.374.063l-1.481-.748a1.623 1.623 0 01-.888-1.457V9.083c0-.621.34-1.18.888-1.456l1.482-.748z" fill="#62CA76"/></svg>
